elements/app-hax/lib/assets/images/PostIt.svg

<svg xmlns="http://www.w3.org/2000/svg" fill="none" width="424" height="342" viewBox="0 0 424 342"><path d="M69 277v-10h10v-10h10v-20h10v-60h10V87h200v150h-10v20h-10v20H69Z" fill="#E9D076"/><path d="M99 87h10v90H99V87Zm-10 90h10v60H89v-60Zm-10 60h10v20H79v-20Zm-20 30h10v20H59v-20Zm10-10h10v10H69v-10Zm220 0h10v20h-10v-20Zm10-20h10v20h-10v-20Zm10-160h10v160h-10V77ZM69 277h220v10H69v-10Zm40-200h200v10H109V77Z" fill="#000"/><path d="M132.25 186.875v-3.125h-3.125v-3.125H126v-9.375h3.125v-3.125h3.125V165h12.5v3.125h3.125v3.125h-6.25v-3.125h-6.25v3.125h-3.125v9.375h3.125v3.125h6.25v-3.125h6.25v3.125h-3.125v3.125h-12.5Zm21.875 0v-3.125H151v-9.375h3.125v-3.125h15.625v3.125h3.125v9.375h-3.125v3.125h-15.625Zm3.125-3.125h9.375v-9.375h-9.375v9.375Zm18.75 3.125V171.25h18.75v3.125h3.125v12.5h-6.25v-12.5H188.5v12.5h-6.25v-12.5h-3.125v12.5H176Zm34.375-18.75V165h6.25v3.125h-6.25Zm-6.25 18.75v-3.125h6.25v-9.375h-3.125v-3.125h9.375v12.5h6.25v3.125h-18.75Zm21.875 0V171.25h18.75v3.125h3.125v12.5h-6.25v-12.5h-9.375v12.5H226ZM254.125 190v-3.125h12.5v-3.125h-12.5v-3.125H251v-6.25h3.125v-3.125h18.75v15.625h-3.125V190h-15.625Zm3.125-9.375h9.375v-6.25h-9.375v6.25Zm-103.125 31.25v-3.125H151v-3.125h6.25v3.125h9.375v-6.25h-12.5v-3.125H151v-6.25h3.125V190h15.625v3.125h3.125v3.125h-6.25v-3.125h-9.375v6.25h12.5v3.125h3.125v6.25h-3.125v3.125h-15.625Zm25 0v-3.125H176v-9.375h3.125v-3.125h15.625v3.125h3.125v9.375h-3.125v3.125h-15.625Zm3.125-3.125h9.375v-9.375h-9.375v9.375Zm21.875 3.125v-3.125H201v-9.375h3.125v-3.125h15.625v3.125h3.125v9.375h-3.125v3.125h-15.625Zm3.125-3.125h9.375v-9.375h-9.375v9.375Zm18.75 3.125V196.25h18.75v3.125h3.125v12.5h-6.25v-12.5h-9.375v12.5H226Z" fill="#000" fill-opacity="1"/><path d="M162 63h100v45H162V63Zm-5 40h5v5h-5v-5Zm0-10h5v5h-5v-5Zm0-10h5v5h-5v-5Zm0-10h5v5h-5v-5Zm0-10h5v5h-5v-5Zm105 40h5v5h-5v-5Zm0-10h5v5h-5v-5Zm0-10h5v5h-5v-5Zm0-10h5v5h-5v-5Zm0-10h5v5h-5v-5Z" fill="#FFF9E6" fill-opacity=".5"/><path d="M162 68h-5v-5h110v5h-5v5h5v5h-5v5h5v5h-5v5h5l.059 5H262v5h5l.059 5H157v-5h5v-5h-5v-5h5v-5h-5v-5h5v-5h-5v-5h5v-5Z" stroke="#000" stroke-opacity=".05" stroke-width="2"/></svg>

<svg width="424" height="342" viewBox="0 0 424 342" fill="none" xmlns="http://www.w3.org/2000/svg">
<path d="M69 277V267H79V257H89V237H99V177H109V87H309V97V237H299V257H289V277H69Z" fill="#E9D076" />
<path d="M99 87H109V177H99V87Z" fill="black"/>
<path d="M89 177H99V237H89V177Z" fill="black"/>
<path d="M79 237H89V257H79V237Z" fill="black"/>
<path d="M59 267H69V287H59V267Z" fill="black"/>
<path d="M69 257H79V267H69V257Z" fill="black"/>
<path d="M289 257H299V277H289V257Z" fill="black"/>
<path d="M299 237H309V257H299V237Z" fill="black"/>
<path d="M309 77H319V237H309V77Z" fill="black"/>
<path d="M69 277H289V287H69V277Z" fill="black"/>
<path d="M109 77H309V87H109V77Z" fill="black"/>
<path d="M132.25 186.875V183.75H129.125V180.625H126V171.25H129.125V168.125H132.25V165H144.75V168.125H147.875V171.25H141.625V168.125H135.375V171.25H132.25V180.625H135.375V183.75H141.625V180.625H147.875V183.75H144.75V186.875H132.25ZM154.125 186.875V183.75H151V174.375H154.125V171.25H169.75V174.375H172.875V183.75H169.75V186.875H154.125ZM157.25 183.75H166.625V174.375H157.25V183.75ZM176 186.875V171.25H194.75V174.375H197.875V186.875H191.625V174.375H188.5V186.875H182.25V174.375H179.125V186.875H176ZM210.375 168.125V165H216.625V168.125H210.375ZM204.125 186.875V183.75H210.375V174.375H207.25V171.25H216.625V183.75H222.875V186.875H204.125ZM226 186.875V171.25H244.75V174.375H247.875V186.875H241.625V174.375H232.25V186.875H226ZM254.125 190V186.875H266.625V183.75H254.125V180.625H251V174.375H254.125V171.25H272.875V186.875H269.75V190H254.125ZM257.25 180.625H266.625V174.375H257.25V180.625ZM154.125 211.875V208.75H151V205.625H157.25V208.75H166.625V202.5H154.125V199.375H151V193.125H154.125V190H169.75V193.125H172.875V196.25H166.625V193.125H157.25V199.375H169.75V202.5H172.875V208.75H169.75V211.875H154.125ZM179.125 211.875V208.75H176V199.375H179.125V196.25H194.75V199.375H197.875V208.75H194.75V211.875H179.125ZM182.25 208.75H191.625V199.375H182.25V208.75ZM204.125 211.875V208.75H201V199.375H204.125V196.25H219.75V199.375H222.875V208.75H219.75V211.875H204.125ZM207.25 208.75H216.625V199.375H207.25V208.75ZM226 211.875V196.25H244.75V199.375H247.875V211.875H241.625V199.375H232.25V211.875H226Z" fill="black" fill-opacity="1"/>
<path d="M162 63H262V108H162V63Z" fill="#FFF9E6" fill-opacity="0.5"/>
<path d="M157 103H162V108H157V103Z" fill="#FFF9E6" fill-opacity="0.5"/>
<path d="M157 93H162V98H157V93Z" fill="#FFF9E6" fill-opacity="0.5"/>
<path d="M157 83H162V88H157V83Z" fill="#FFF9E6" fill-opacity="0.5"/>
<path d="M157 73H162V78H157V73Z" fill="#FFF9E6" fill-opacity="0.5"/>
<path d="M157 63H162V68H157V63Z" fill="#FFF9E6" fill-opacity="0.5"/>
<path d="M262 103H267V108H262V103Z" fill="#FFF9E6" fill-opacity="0.5"/>
<path d="M262 93H267V98H262V93Z" fill="#FFF9E6" fill-opacity="0.5"/>
<path d="M262 83H267V88H262V83Z" fill="#FFF9E6" fill-opacity="0.5"/>
<path d="M262 73H267V78H262V73Z" fill="#FFF9E6" fill-opacity="0.5"/>
<path d="M262 63H267V68H262V63Z" fill="#FFF9E6" fill-opacity="0.5"/>
<path d="M162 68H157V63H267V68H262V73H267V78H262V83H267V88H262V93H267L267.059 98H262V103H267L267.059 108H157V103H162V98H157V93H162V88H157V83H162V78H157V73H162V68Z" stroke="black" stroke-opacity="0.05" stroke-width="2"/>
</svg>
